/* XPM */
static char * tcolorpicker_xpm[] = {
"20 21 5 1",
"       c None",
".      c #808080",
"+      c #FF0000",
"@      c #00FF00",
"#      c #0000FF",
"                    ",
"                    ",
"   .............    ",
"   .+++++++++++.    ",
"   .+++++++++++.    ",
"   .+++++++++++.    ",
"   .+++++++++++.    ",
"   .............    ",
"   .@@@@@@@@@@@.    ",
"   .@@@@@@@@@@@.    ",
"   .@@@@@@@@@@@.    ",
"   .............    ",
"   .###########.    ",
"   .###########.    ",
"   .............    ",
"                    ",
"                    ",
"                    ",
"                    ",
"                    ",
"                    "
};
