/* XPM */
static char * tdatetimepicker_xpm[] = {
"20 21 5 1",
"       c None",
".      c #808080",
"+      c #FFFFFF",
"@      c #000080",
"#      c #C0C0C0",
"                    ",
"   .............    ",
"   .+++++++++++.    ",
"   .+@@@@@@@@@+.    ",
"   .+@+++++++++.    ",
"   .+@+++++++++.    ",
"   .+@+++++++++.    ",
"   .+@@@@@@@@@+.    ",
"   .+++++++++++.    ",
"   .............    ",
"   .#####.#####.    ",
"   .#####.#####.    ",
"   .............    ",
"                    ",
"                    ",
"                    ",
"                    ",
"                    ",
"                    ",
"                    ",
"                    "
};
