/* XPM */
static char * tgroupbox_xpm[] = {
"20 21 5 1",
"       c None",
".      c #808080",
"+      c #FFFFFF",
"@      c #000000",
"#      c #C0C0C0",
"                    ",
"                    ",
"                    ",
"   @@@@  @@@@@@@@@  ",
"   @  @  @       @  ",
"   @  @  @       @  ",
"   @@@@  @       @  ",
"   @     @       @  ",
"   @     @       @  ",
"   @     @       @  ",
"   @     @       @  ",
"   @     @       @  ",
"   @     @       @  ",
"   @     @       @  ",
"   @     @       @  ",
"   @     @       @  ",
"   @     @       @  ",
"   @     @       @  ",
"   @      @       @ ",
"    @@@@@@@@@@@@@@  ",
"                    "};
