/* XPM */
static char * tprogressbar_xpm[] = {
"20 21 5 1",
"       c None",
".      c #808080",
"+      c #FFFFFF",
"@      c #0000A0",
"#      c #C0C0C0",
"                    ",
"                    ",
"                    ",
"                    ",
"  ................. ",
"  .+++++++++++++++. ",
"  .+@@@@@@@@@+++++. ",
"  .+@@@@@@@@@+++++. ",
"  .+@@@@@@@@@+++++. ",
"  .+@@@@@@@@@+++++. ",
"  .+@@@@@@@@@+++++. ",
"  .+@@@@@@@@@+++++. ",
"  .+++++++++++++++. ",
"  ................. ",
"                    ",
"                    ",
"                    ",
"                    ",
"                    ",
"                    ",
"                    "};
