/* XPM */
static char * tscrollbox_xpm[] = {
"20 21 5 1",
"       c None",
".      c #808080",
"+      c #FFFFFF",
"@      c #C0C0C0",
"#      c #606060",
"                    ",
"  ................. ",
"  .+++++++++++++++. ",
"  .+@@@@@@@@@@@@@+. ",
"  .+@@@@@@@@@@@@@+# ",
"  .+@@@@@@@@@@@@@+# ",
"  .+@@@@@@@@@@@@@+# ",
"  .+@@@@@@@@@@@@@+# ",
"  .+@@@@@@@@@@@@@+# ",
"  .+@@@@@@@@@@@@@+# ",
"  .+@@@@@@@@@@@@@+# ",
"  .+@@@@@@@@@@@@@+# ",
"  .+@@@@@@@@@@@@@+# ",
"  .+@@@@@@@@@@@@@+# ",
"  .+@@@@@@@@@@@@@+# ",
"  .+@@@@@@@@@@@@@+# ",
"  .+@@@@@@@@@@@@@+# ",
"  .+@@@@@@@@@@@@@.  ",
"  .+@@@@@@@@@@@@@.# ",
"  ................. ",
"                    "};
