/* XPM */
static char * ttrackbar_xpm[] = {
"20 21 2 1",
"       c None",
".      c #808080",
"                    ",
"                    ",
"                    ",
"                    ",
"                    ",
"                    ",
"                    ",
"                    ",
"                    ",
"  ...............   ",
"  ...............   ",
"    .....           ",
"    .....           ",
"    .....           ",
"  ...............   ",
"                    ",
"                    ",
"                    ",
"                    ",
"                    ",
"                    ",
"                    "
};
