/* XPM */
static char * twwebdbconnection_xpm[] = {
"24 24 4 1",
"       c None",
".      c #3366CC",
"+      c #FFFFFF",
"@      c #1A3D80",
"                        ",
"                        ",
"         @@@@@@         ",
"       @@++++++@@       ",
"       @++++++++@@      ",
"      @+++......+@@     ",
"      @+++.@@@@.++@     ",
"     @+++.@@..@@.+@     ",
"     @+++...@@...@@     ",
"     @+++........@@     ",
"      @+++......+@      ",
"       @++++++++@       ",
"       @@++++++@@       ",
"        @@@@@@@@        ",
"         @....@         ",
"         @....@         ",
"         @....@         ",
"          @..@          ",
"          @..@          ",
"           @@           ",
"                        ",
"                        ",
"                        ",
"                        "};
