/* XPM */
static char * twwebdbtable_xpm[] = {
"24 24 5 1",
"       c None",
".      c #808080",
"+      c #FFFFFF",
"@      c #C0C0C0",
"#      c #424242",
"                        ",
"                        ",
"    ...............     ",
"    .+++++++++++++.     ",
"    .+@@@@@@@@@@@+.     ",
"    .+@@@@@@@@@@@+.     ",
"    .+++++++++++++.     ",
"    .+@+@+@+@+@+@+.     ",
"    .+@+@+@+@+@+@+.     ",
"    .+@+@+@+@+@+@+.     ",
"    .+@+@+@+@+@+@+.     ",
"    .+@+@+@+@+@+@+.     ",
"    .+@+@+@+@+@+@+.     ",
"    .+@+@+@+@+@+@+.     ",
"    .+@+@+@+@+@+@+.     ",
"    .+@+@+@+@+@+@+.     ",
"    .+@+@+@+@+@+@+.     ",
"    .+++++++++++++.     ",
"    ...............     ",
"       #     #          ",
"       #     #          ",
"       #     #          ",
"                        ",
"                        "};
